icons/core/hourglass-fill.svg

<svg width="32" height="32" viewBox="0 0 32 32" fill="none" xmlns="http://www.w3.org/2000/svg">
<path fill-rule="evenodd" clip-rule="evenodd" d="M26 4L24 4V11.0858C24 11.6162 23.7893 12.1249 23.4142 12.5L19.9142 16L23.4142 19.5C23.7893 19.8751 24 20.3838 24 20.9142V28L26 28V30H6V28H8V20.9142C8 20.3838 8.21071 19.8751 8.58579 19.5L12.0858 16L8.58579 12.5C8.21071 12.1249 8 11.6162 8 11.0858V4L6 4V2H26V4ZM10 4H22V10H10V4Z" fill="black"/>
</svg>

<svg viewBox="0 0 32 32" xmlns="http://www.w3.org/2000/svg"><path fill-rule="evenodd" d="M26 4h-2v7.086a2 2 0 01-.586 1.414l-3.5 3.5 3.5 3.5A2 2 0 0124 20.914V28h2v2H6v-2h2v-7.086a2 2 0 01.586-1.414l3.5-3.5-3.5-3.5A2 2 0 018 11.086V4H6V2h20v2zM10 4h12v6H10V4z"/></svg>
